X: 1
T: the Rose in the Heather
%D:1929
R: jig
Z: Transcribed to abc by Mary Lou Knack
D: First recorded under this title in New York in 1929 by melodeon player Peter J. Conlon and fiddler James Morrison.
B: O’Brien (Jerry O’Brien’s Accordion Instructor), 1949; #48.
B: Breathnach (CRÉ I), 1963, #28, p.12.
L: 1/8
M: 6/8
K: D
"A"\
|: "D"FAF "A"EFE | "D"DFA BAF | ABd "A"ede | "D"fdB "A"AFE |  "D"FAF "A"EFE |
| "D"DFA BAF | AdB "A"AFE | "(D)"FDC "D"D3 "B":: "D"fdB ABd | faa afd | "G"gfg "D"fed |
| "Em"Bee "A"efg |  "D"fdB ABd | faa afa | "G"baf "A"gfe | "(D)"fdc "D"d3 :|
